app/images/map-icon.svg

<svg width="20" height="27" viewBox="0 0 20 27" fill="none" xmlns="http://www.w3.org/2000/svg">
<path d="M10 26.1778C9.54445 26.1778 9.09998 25.9889 8.78887 25.6444C6.14442 22.8111 -0.0110961 15.6111 1.50222e-05 9.92221C1.50222e-05 4.45554 4.4889 0 10 0C15.5111 0 20 4.45554 20 9.92221C20 15.5778 13.8556 22.8 11.2111 25.6444C10.9 25.9778 10.4556 26.1778 10 26.1778ZM10 1.11111C5.10001 1.11111 1.11113 5.06666 1.11113 9.92221C1.10001 15.3555 7.60003 22.7445 9.60002 24.8889C9.71114 25 9.84445 25.0666 10 25.0666C10.1556 25.0666 10.3 25 10.4 24.8889C12.3889 22.7445 18.8889 15.3333 18.8889 9.92221C18.8889 5.06666 14.9 1.11111 10 1.11111Z" fill="#C08E71"/>
<path d="M10 15.0781C7.24444 15.0781 5 12.8337 5 10.0781C5 7.32257 7.24444 5.07812 10 5.07812C12.7555 5.07812 15 7.32257 15 10.0781C15 12.8337 12.7555 15.0781 10 15.0781ZM10 6.18924C7.85555 6.18924 6.11111 7.93368 6.11111 10.0781C6.11111 12.2226 7.85555 13.967 10 13.967C12.1444 13.967 13.8889 12.2226 13.8889 10.0781C13.8889 7.93368 12.1444 6.18924 10 6.18924Z" fill="#C08E71"/>
</svg>

<svg width="20" height="27" fill="none" xmlns="http://www.w3.org/2000/svg"><path d="M10 26.178c-.456 0-.9-.19-1.211-.534C6.144 22.811-.011 15.611 0 9.922 0 4.456 4.489 0 10 0s10 4.456 10 9.922c0 5.656-6.144 12.878-8.789 15.722a1.675 1.675 0 0 1-1.211.534ZM10 1.11c-4.9 0-8.889 3.956-8.889 8.811C1.1 15.355 7.6 22.744 9.6 24.89a.538.538 0 0 0 .8 0c1.989-2.145 8.489-9.556 8.489-14.967 0-4.855-3.989-8.81-8.889-8.81Z" fill="#C08E71"/><path d="M10 15.078c-2.756 0-5-2.244-5-5 0-2.755 2.244-5 5-5 2.755 0 5 2.245 5 5 0 2.756-2.245 5-5 5Zm0-8.889a3.893 3.893 0 0 0-3.889 3.89A3.893 3.893 0 0 0 10 13.966a3.893 3.893 0 0 0 3.889-3.889A3.893 3.893 0 0 0 10 6.19Z" fill="#C08E71"/></svg>
